<?xml version="1.0" encoding="UTF-8"?>
<map version="1.10" tiledversion="1.11.2" orientation="orthogonal" renderorder="right-down" width="30" height="20" tilewidth="16" tileheight="16" infinite="0" nextlayerid="4" nextobjectid="1">
 <editorsettings>
  <export target="map.json" format="json"/>
 </editorsettings>
 <tileset firstgid="1" name="Overworld_Tileset" tilewidth="16" tileheight="16" tilecount="234" columns="18">
  <image source="../Overworld_Tileset.png" width="288" height="208"/>
 </tileset>
 <tileset firstgid="235" name="water_tile_anim_strip_8" tilewidth="16" tileheight="16" tilecount="8" columns="8">
  <image source="../water_tile_anim_strip_8.png" width="128" height="16"/>
 </tileset>
 <layer id="1" name="Livello tile 1" width="30" height="20">
  <data encoding="csv">
25,25,25,25,25,25,25,25,25,25,25,25,25,25,25,25,25,25,25,25,25,25,25,25,25,25,25,25,25,25,
25,25,25,25,25,25,25,25,25,25,25,25,25,25,25,25,25,25,25,25,25,25,25,25,25,25,25,25,25,25,
25,25,25,25,25,25,25,25,25,25,25,25,25,25,25,25,25,25,25,25,25,25,25,25,25,25,25,25,25,25,
25,25,25,25,25,25,25,25,25,25,25,25,25,25,25,25,25,25,25,25,25,25,25,25,25,25,25,25,25,25,
25,25,25,25,25,25,25,25,25,25,25,25,25,25,25,25,25,25,25,25,25,25,25,25,25,25,25,25,25,25,
25,25,25,25,25,25,25,25,25,25,25,25,25,25,25,25,25,25,25,25,25,25,25,25,25,25,25,25,25,25,
25,25,25,25,25,25,25,25,25,25,25,25,25,25,25,25,25,25,25,25,25,25,25,25,25,25,25,25,25,25,
25,25,25,25,25,25,25,25,25,25,25,25,25,25,25,25,25,25,25,25,25,25,25,25,25,25,25,25,25,25,
25,25,25,25,25,25,25,25,25,25,25,25,25,25,25,25,25,25,25,25,25,25,25,25,25,25,25,25,25,25,
25,25,25,25,25,25,25,25,25,25,25,25,25,25,25,25,25,25,25,25,25,25,25,25,25,25,25,25,25,25,
25,25,25,25,25,25,25,25,25,25,25,25,25,25,25,25,25,25,25,25,25,25,25,25,25,25,25,25,25,25,
25,25,25,25,25,25,25,25,25,25,25,25,25,25,25,25,25,25,25,25,25,25,25,25,25,25,25,25,25,25,
25,25,25,25,25,25,25,25,25,25,25,25,25,25,25,25,25,25,25,25,25,25,25,25,25,25,25,25,25,25,
25,25,25,25,25,25,25,25,25,25,25,25,25,25,25,25,25,25,25,25,25,25,25,25,25,25,25,25,25,25,
25,25,25,25,25,25,25,25,25,25,25,25,25,25,25,25,25,25,25,25,25,25,25,25,25,25,25,25,25,25,
25,25,25,25,25,25,25,25,25,25,25,25,25,25,25,25,25,25,25,25,25,25,25,25,25,25,25,25,25,25,
25,25,25,25,25,25,25,25,25,25,25,25,25,25,25,25,25,25,25,25,25,25,25,25,25,25,25,25,25,25,
25,25,25,25,25,25,25,25,25,25,25,25,25,25,25,25,25,25,25,25,25,25,25,25,25,25,25,25,25,25,
25,25,25,25,25,25,25,25,25,25,25,25,25,25,25,25,25,25,25,25,25,25,25,25,25,25,25,25,25,25,
25,25,25,25,25,25,25,25,25,25,25,25,25,25,25,25,25,25,25,25,25,25,25,25,25,25,25,25,25,25
</data>
 </layer>
 <layer id="2" name="alberi" width="30" height="20">
  <data encoding="csv">
166,167,0,0,0,0,0,0,0,0,0,0,58,0,0,0,0,0,168,169,0,235,236,0,0,0,0,0,166,167,
184,185,0,0,0,0,166,167,0,0,0,0,0,0,58,0,0,0,186,187,0,235,236,0,0,0,0,0,184,185,
202,203,0,166,167,0,184,185,0,0,0,166,167,0,0,0,168,169,204,205,0,235,236,0,0,0,0,0,202,203,
0,0,0,184,185,0,202,203,0,0,0,184,185,0,0,0,186,187,0,0,0,235,236,0,0,0,0,0,0,0,
168,169,0,202,166,167,0,0,0,0,0,202,203,58,0,0,204,205,0,94,0,235,236,0,0,0,94,0,0,0,
186,187,0,0,184,185,2684354585,2684354585,2684354585,2684354585,2684354585,2684354585,0,0,0,0,0,0,0,0,0,235,236,0,166,167,0,0,0,0,
204,205,0,0,202,203,2684354585,2684354585,59,59,59,59,2684354585,2684354585,0,0,0,0,0,0,0,235,235,0,184,185,0,0,94,0,
0,0,58,0,0,0,97,97,97,97,97,6,0,0,0,0,0,0,0,0,0,237,237,0,202,203,0,0,0,0,
0,58,0,0,25,25,0,2684354585,0,0,0,0,0,0,0,0,0,94,0,0,0,237,237,237,237,237,237,237,237,237,
168,169,0,0,0,58,0,0,0,0,0,0,0,0,58,0,0,0,0,0,168,169,0,94,0,0,0,0,0,0,
186,187,0,0,0,74,0,0,0,0,0,0,0,0,0,0,166,167,0,0,186,187,0,0,0,0,0,94,0,0,
204,205,0,0,0,74,0,0,0,0,0,0,0,0,0,0,184,185,0,0,204,205,0,0,0,0,0,168,169,0,
0,0,0,0,0,74,58,0,0,74,0,0,0,0,0,58,202,203,0,0,58,0,0,0,0,0,0,186,187,0,
0,58,0,0,0,0,0,0,0,0,0,0,0,0,0,0,0,0,58,0,58,0,94,0,0,0,0,204,205,0,
0,0,0,0,0,0,0,0,0,0,0,0,0,0,0,0,0,0,0,0,0,0,0,0,94,0,0,0,0,0,
0,58,0,0,0,0,0,0,0,0,0,168,169,0,0,0,58,168,169,0,0,0,0,0,0,0,0,0,0,0,
0,0,0,0,0,168,169,0,0,0,0,186,187,0,0,0,0,186,187,0,0,0,0,0,0,0,0,166,167,0,
0,0,0,0,0,186,187,0,0,0,0,204,205,0,0,0,58,204,205,0,58,0,168,169,0,0,0,184,185,0,
0,94,0,0,0,204,205,0,0,0,0,0,0,58,0,0,0,0,0,0,0,58,186,187,0,0,0,202,203,94,
0,0,0,0,0,0,0,0,0,0,0,0,0,0,0,0,0,0,0,0,0,0,204,205,0,0,0,0,0,0
</data>
 </layer>
 <layer id="3" name="case" width="30" height="20">
  <data encoding="csv">
0,0,0,0,0,0,0,0,0,0,0,0,0,0,0,0,0,0,0,0,0,0,0,0,0,0,0,0,0,0,
0,0,0,0,0,0,0,0,0,0,0,0,0,0,0,0,0,0,0,0,0,0,0,0,0,0,0,0,0,0,
0,0,0,0,0,0,0,0,0,0,0,0,0,0,0,0,0,0,0,0,0,0,0,0,0,0,0,0,0,0,
0,0,0,0,0,0,0,0,0,0,0,0,0,0,0,0,0,0,0,0,0,0,0,0,0,0,0,0,0,0,
0,0,0,0,0,0,0,0,0,0,0,0,0,0,0,0,0,0,0,0,0,0,0,0,0,0,0,0,0,0,
0,0,0,0,0,0,0,0,0,0,0,0,0,0,0,0,0,0,0,0,0,0,0,0,0,0,0,0,0,0,
0,0,0,0,0,0,0,0,0,0,0,0,0,0,0,0,0,0,0,0,0,0,0,0,0,0,0,0,0,0,
0,0,0,5,97,97,13,14,15,16,17,97,97,8,0,0,0,0,0,0,0,0,0,0,0,0,0,0,0,0,
0,0,0,23,97,25,31,32,33,34,35,25,97,26,0,0,0,0,0,0,0,0,0,0,0,0,0,0,0,0,
0,0,0,23,97,0,49,50,51,52,53,54,97,26,0,0,0,0,0,0,0,0,0,0,0,0,0,0,0,0,
0,0,0,23,97,0,67,68,69,70,71,72,97,26,0,0,0,0,0,0,0,0,0,0,0,0,0,0,0,0,
0,0,0,23,97,0,85,86,87,88,89,90,97,26,0,0,0,0,0,0,0,0,0,0,0,0,0,0,0,0,
0,0,0,23,97,0,0,0,0,0,77,0,97,26,0,0,0,0,0,0,0,0,0,0,0,0,0,0,0,0,
0,0,0,23,97,97,97,0,0,97,97,97,97,26,0,0,0,0,0,0,0,0,0,0,0,0,0,0,0,0,
0,0,0,41,42,42,42,0,0,42,42,42,42,44,0,0,0,0,0,0,0,0,0,0,0,0,0,0,0,0,
0,0,0,0,0,0,0,0,0,0,0,0,0,0,0,0,0,0,0,0,0,0,0,0,0,0,0,0,0,0,
0,0,0,0,0,0,0,0,0,0,0,0,0,0,0,0,0,0,0,0,0,0,0,0,0,0,0,0,0,0,
0,0,0,0,0,0,0,0,0,0,0,0,0,0,0,0,0,0,0,0,0,0,0,0,0,0,0,0,0,0,
0,0,0,0,0,0,0,0,0,0,0,0,0,0,0,0,0,0,0,0,0,0,0,0,0,0,0,0,0,0,
0,0,0,0,0,0,0,0,0,0,0,0,0,0,0,0,0,0,0,0,0,0,0,0,0,0,0,0,0,0
</data>
 </layer>
</map>
